X: 30440
T: Old Walls Of Liscarroll, The
R: jig
M: 6/8
K: Dmajor
|:F|ABA DED|AFA dAF|GEE BEE|BAB EFG|
ABA DED|AFA dAF|GEE BEE|DED D2:|
|:F|AdB ABc|d2e dAF|GEE BEE|BAB EFG|
AdB ABc|d2e dAF|GEE BEE|DED D2:|

